X:1
T:The Well-Tempered Clavier Part I Fuga XXIV
T:BWV 869
T:J. S. Bach
%%score { ( 1 2 ) | ( 3 4 5 ) }
L:1/8
Q:1/4=60
M:4/4
K:D
V:1 treble nm="Harp"
V:2 treble 
V:3 bass 
V:4 bass 
V:5 bass 
V:1
"^Lent" z8 | E^D=cB F^Ed^c | ^BcAF A/4^G/4A/4G/4A/4G/4A/4G/4 A/4G/4A/4G/4A/4G/4A/4G/4 | %3
 F>^E F/^G/A/c/ B/G/A/^B/ f2 | e2 d2 c2 B2- | B^A B2- B/c/d/e/ f/g/B/A/ | d4- d=cB^d | e4- edc^e | %8
 f>g f/e/d/B/ c/e/d/B/ Ff- | f>g f/e/^d/c/ B/c/4=d/4c- c/B/A/d/ | ^G2 A2 B4- | B2 A2 G4 | %12
 z BAF dBe^d | A^G=fe B^Ag^f | ^efdB c4- | c/c/d/e/ f/g/B/^A/ B4- | %16
 B/^E/F/^G/ A/B/c/F/ d/e/f- fe/d/ | c/d/e- ed/c/ B/c/d- dc/B/ | A2 z f- fe/d/ c/d/e- | %19
 ed/c/ B/c/d- dc/B/ ^A/B/c- | cB/^A/ B2- B/A/B/d/ c2 | B2 A2 ^G2 F2- | F^E F2 ^G4 | F2 f2- fe^df | %24
 g4- gf^e^g | cd/e/ d/e/f- fe/d/ c/d/e- | ed/c/ B/c/d- dc/B/ ^A/B/c- | cB z b- ba/g/ f/g/a- | %28
 ag/f/ e/f/g- gf/e/ ^d/e/f- | fe/^d/ e/f/g/b/ ag f2 | e2 d2 ^c2 B/c/d/e/ | %31
 d<c B2- B/c/d/e/ f/g/B/^A/ | d4 c3 ^d | ^e2 z f- f/=e/f/a/ ^g2 | z fdB gfb^a | %35
 e^d g2- g/f/^g/^a/ b/=g/f/^e/ | f2 =f2- f/e/^f/^g/ a/b/e/^d/ | %37
 e/F/G/A/ B/c/d/f/ e/c/d/f/ g/e/f/^a/ | b2 a2 ^g2 f2- | f/^e/f/e/ f2- f/A/B/c/ d/=e/F/^E/ | %40
 FfdB gfb^a | e^d z e- e/d/e/g/ f2 | e/d/c/B/ A/B/c/e/ d/B/c/e/ f/d/e/^g/ | %43
 a/g/f/e/ d/c/B/A/ G/E/F/A/ B/G/A/c/ | d/e/d/e/ f/g/a/f/ d/=f/e/d/ =c/B/c/d/ | %45
 =c<B A2- Ad/e/ f/g/A/^G/ | e/f/G/F/ d/e/F/E/ c/B/c/d/ e/f/g/e/ | a4 g2 =f2 | e2 d2- d/c/d/c/ d2- | %49
 d/e/f/g/ a/b/d/c/ d4- | d2 cf- f/B/c/d/ e/f/B/^A/ | d2 cB c4 | z/ F/^G/A/ B/c/F/^E/ A2 z2 | %53
 z2 ^g2 f2 e2 | ^d2 c2- c^B c2- | c/^d/e/f/ ^g/a/c/^B/ e4- | e/e/f/^g/ a/b/^d/c/ d2 z2 | %57
 z2 f2 e2 d2 | c2 B2- B/^A/B/A/ B2- | B/c/d/e/ f/g/B/^A/ d2- d/c/d/c/ | e/d/f/e/ g2- g>f a2- | %61
 a>^g ba g2- g/^e/f- | f/f/^g/a/ b/g/f/^e/ a4- | a4- a/f/g/a/ b/=c'/f/e/ | %64
 f2- f/f/d/B/ g/a/b- ba/g/ | f/g/a- ag/f/ e/f/g- gf/e/ | d2- d/e/f- fe/d/ c/d/e- | %67
 ed/c/ B/c/d- dc/B/ ^A/B/c- | c/F/^G/^A/ B/c/d/f/ e/c/d/f/ g/e/f/^a/ | %69
 b/a/g/f/ e/d/=c/B/ A/F/G/B/ c/A/B/^d/ | e2 d2 c2 B2- | B/^A/B/A/ B2- B/c/d/e/ f/g/B/A/ | %72
 B/d/e/f/ g/a/=c/B/ c/e/f/g/ ^a/b/d/^c/ | d4 c4- | c2 =c/^A/B- B2 ^A2 | !fermata!B8 |] %76
V:2
 z FDB, GFB^A | x8 | x8 | x8 | x8 | x8 | x8 | x8 | x8 | x8 | x8 | x8 | F4 ^E^D z =d | %13
 ^de z2 z e =d/c/d/B/ | c2 BF G4- | GC- C2 F2 ^G2- | G2 F z z4 | x8 | %18
 z FB,[I:staff +1]B,[I:staff -1] z4 | x8 | z FDB, GFB^A | E^D=cB F^Ed^c | %22
 ^BcAF- F/^G/A/=B/ c/d/F/^E/ | A4- A=cB^d | e4- edc^e | f2 z B/A/ G/A/B- BA/G/ | %26
 F/G/A- AG/F/ E/F/G- GF/E/ | D/E/F- FE/D/ =C/D/E- ED/C/ | B,/=C/D- DC/B,/ A,/B,/C- CB,/A,/ | %29
 G,2 z E/^D/ D/E/F/G/ A/G/A/B/ | =c/A/B- B/A/^G/F/ E/=G/F/^A/ B2- | %31
 BB/^A/ z/ =A/G/F/[I:staff +1] =E4 |[I:staff -1] z/ F/^G/^A/ B/c/F/^E/ =A4 | ^GcAF dcf^e | %34
 B^A z B- B/A/B/d/ c2- | cBe^A B4- | B/^A/B/c/ d/e/=A/^G/ A4- | AG F2 z4 | %38
 z/ f/a/g/ f/e/^d/c/ B/=d/c/B/ A/^G/c/A/ | ^G2 z/ =e/d/c/ B/A/G/A/ B2- | B^A z B- B/A/B/d/ c2 | %41
 DBGE =cBe^d | A^G A2- AGcB | e z z F D2 z G | Ad =c2 B2 A2- | AA/^G/ A/=G/F/E/ D/C/B,/C/ D2 | %46
 C2 B,2 A,4 | x8 | x8 | x8 | z/ E/F/G/ A/B/[I:staff +1]E/^D/[I:staff -1] G4- | %51
 GFE^G- G/E/F/G/ A/B/D/C/ | ^D2 ^E^G G/G/F/E/ F/G/A/c/ | B/^G/A/c/ B/d/c/B/ c/d/e/d/ c/B/^A/G/ | %54
 F/A/^G/^B/ c/^d/e/f/ e/d/ z/ A/ G/=B/A/G/ |[I:staff +1] F4[I:staff -1] ^G4- | %56
 G/[I:staff +1]C/^D/E/ F/^G/A/B/ A/[I:staff -1]F/G/A/ B/c/^d/e/ | %57
 f/^d/e/^g/ f/c/B/A/ B/c/=d/c/ B/A/^G/F/ | E/G/F/E/ D/C/D/B,/ C2 z/ =A/G/F/ | %59
 E2 z c- c/c/B/^A/ B2 | cd z/ e/d/c/ B/^A/B z/ f/e/^d/ | c/^B/c z/ ^gf/- f/f/^e/g/ c>d | B4 c4- | %63
 c/[I:staff +1]F/G/A/[I:staff -1] B/=c/[I:staff +1]E/^D/ E4- | %64
 E/E/D/C/ D[I:staff -1] z z e/d/ c/d/e- | ed/c/ B/c/d dc/B/ ^A/B/c- | c2 BA G/A/B- BA/G/ | %67
 F/G/A- AG/F/ E/F/G- GF/E/ | D2 B2- B^Adc | f z z2 z2 z B- | B/c/B/A/ ^G2 z/ A/F- F/E/D/E/ | %71
 C2 z/ F/E/D/ C4 |[I:staff +1] B,2[I:staff -1] z[I:staff +1] F E2[I:staff -1] z2 | z FDB, GFB^A | %74
 E^D z ^G F^E F>=E | ^D8 |] %76
V:3
 z8 | z8 | z8 | z B,A,F, DB,E^D | A,^G,=FE B,^A,G^F | ^EFDB, C4 | %6
 B,/[I:staff -1]F/^G/^A/ B/c/F/=F/ =A4- | AGF^A B4- | B^A[I:staff +1]B z z2[I:staff -1] c2 | %9
 B2 A2 ^G2 F2- | F^E F2- F/^G/A/B/ c/d/F/=F/ | F6 E2- | %12
 E>D[I:staff +1] C/B,/A,/F,/ ^G,/B,/A,/F,/ =CB,/A,/ | B,4 E,2 B,A, | ^G,F,[I:staff -1]FD E4- | %15
 E[I:staff +1]C^A,F, D4 |[I:staff -1] C4-[I:staff +1] CB,/A,/ ^G,/A,/B,- | %17
 B,A,/^G,/ F,/G,/A,- A,G,/F,/ ^E,/F,/G, | F,/[I:staff -1]B/c- cB/A/ G/A/B- BA/G/ | %19
 F/G/A- AG/F/ E/F/G GF/E/ | D2[I:staff +1] z2 z4 | %21
 B,/G,/F,/E,/ ^D,>C, =D,/E,/D,/C,/ B,,/A,,/^G,,/F,,/ | %22
 ^G,,/B,,/A,,/G,,/ F,,/A,,/D,/C,/ B,,G,,C,C,, | F,/G,/A,/B,/ =C/D/E,/^D,/ G,4- | %24
 G,/B,,/C,/D,/ E,/F,/B,,/^A,,/ B,,4- | B,,^A,,B,,D, E,G,,=A,,C, | D,F,,G,,B,, C,E,,F,,^A,, | %27
 z B,G,E, z4 | G,B,=CE, F,A,B,^D, | z B,G,E, =CB,E^D | A,^G,=FE B,^A,G^F | =F^FDB, C4 | %32
 B,4 z/ C/^D/^E/ F/^G/C/^B,/ | C/B,/A,/^G,/ F,/G,/A,/C/ B,/G,/A,/C/ D/B,/C/^E/ | %34
[K:treble] F/E/D/C/ B,/C/D/F/ E/C/D/F/ G/E/F/^A/ | B/A/G/F/ E/D/E/C/ D4- | DCB,D[K:bass] =C4- | %37
 CB, z B,- B,/^A,/B,/D/ ^C2 | F,2 z2 z4 | ^B,CA,F, ^G,4 | %40
 F,/E,/D,/C,/ B,,/C,/D,/F,/ E,/C,/D,/F,/ G,/E,/F,/^A,/ | %41
 B,/A,/G,/F,/ E,/F,/G,/B,/ A,/F,/G,/B,/ ^B,/A,/=B,/^D/ | EE,C,A,, F,E,A,^G, | z A,F,D, B,A,DC | %44
 G,F,_ED A,^G,=F=E | ^DECA, B,4- | B, A,2 G,2 F,E,C, | %47
 z/[I:staff -1] g/f/e/ d/=c/B/c/ d/e/d/c/ B/^c/d/B/ | %48
 G/_B/A/G/ =F/E/F/D/ E2[I:staff +1] z/[I:staff -1] =c/=B/A/ | %49
 G/F/[I:staff +1]E/D/ C/B,/A,/G,/ F,/A,/B,/C/[I:staff -1] D/E/[I:staff +1]A,/^G,/ | %50
 A,4 B,^A,/B,/ CE, | B, z z2 z/ C,/^D,/^E,/ F,/^G,/A,/E,/ | F,2 ^G,2 z CA,F, | DCF=F B,^A,G^F | %54
 C=CA^G =G_AE^C | ^D4- D/^G,/^A,/^B,/ C/D/F,/E,/ | F,2 z2 z4 | z8 | z8 | z4 z[K:treble] FDB, | %60
 GFB^A E^D=cB | F^Edc ^BcAF | ^G4- G/C/^D/=F/ ^F/G/B,/A,/ | B,8 |[K:bass] ^A,F,B,D EGAC | %65
 DFGB, CEF^A, | B,/F,/G,/A,/ B,/=C/E,/^D,/ E,G,A,^C | DF,G,B, CE,F,^A, | B,F,D,B,, G,F,B,^A, | %69
 E,^D, E,4 F,2 | E,2 z/ B,/C/D/ E>E D/C/B,/A,/ | ^G,F,- F,/A,/=G,/F,/ =E,4 | F,2 z A, G,2 z B, | %73
 ^A,/F,/^G,/A,/ B,/C/D/B,/ B,/B,/A,/B,/ C/D/E/C/ | F2 z[I:staff -1] =D ^C4 | B,8 |] %76
V:4
 x8 | x8 | x8 | x8 | x8 | x8 | x8 | x8 | z4 G,F,B,^A, | E,^D,=CB, F,^E,D^C | ^B,CA,F, ^G,4 | %11
 F,/F,/G,/A,/ B,/=C/E,/^D,/ E,/F,/G,/E,/ ^A,/B,/=D,/C,/ | D,B,, F,4 F,2 | E,2 D,2 C,2 B,,2- | %14
 B,,^A,, B,,2- B,,/C,/D,/E,/ F,/=G,/B,,/A,,/ | D,4- D,/^A,,/B,,/C,/ D,/E,/F,,/^E,,/ | %16
 E,,2 F,A, B,D,E,^G, | A,C,D,F, ^G,B,,C,^E, | F,A,,B,,D, E,G,,A,,C, | D,F,,G,,B,, C,E,,F,,^A,, | %20
 B,,2- B,,/C,/D,/F,/ E,/C,/D,/F,/ G,/E,/F,/^A,/ | x8 | x8 | x8 | x8 | x8 | x8 | B,,D,E,G, A,=CDF, | %28
 x8 | E,2 z2 z4 | x8 | x8 | x8 | x8 |[K:treble] x8 | x8 | x4[K:bass] x4 | z E,D,C, G,F,B,^A, | %38
 E,^D,=CB, F,^E,D^C | x8 | x8 | x8 | x8 | D,C, D,6- | D,2 z2 z4 | x8 | z4 z D,C,A,, | %47
 F,D,G,F, =C,B,,A,^G, | D,C,_B,A, ^G,A,F,D, | E,4 D,2 z B,, | A,,2 z F, E,2 z C, | %51
 B,,/F,,/^G,,/A,,/ B,,/C,/F,,/^E,,/ A,,4- | A,,2 ^G,,2 F,, z z2 | x8 | x8 | x8 | z4 z B,,^G,,E,, | %57
 C,B,,E,^D, A,,^G,,=F,E, | B,,^A,,G,F, E,F,D,B,, | C,4 z[K:treble] z z2 | x8 | x8 | x8 | x8 | %64
[K:bass] x8 | x8 | x8 | x8 | x8 | z B,,G,,E,, =C,B,,E,^D, | A,,^G,,=F,E, B,,^A,,G,^F, | %71
 ^E,F,D,B,, C,4 | D,2 z ^D, E,2 z ^E, | F,8- | %74
 F,/^A,,/B,,/C,/ ^D,/^E,/F,,/^E,,/ z/ B,,/C,/=D,/ =E,/C,/F,- | F,8 |] %76
V:5
 x8 | x8 | x8 | x8 | x8 | x8 | x8 | x8 | x8 | x8 | x8 | x8 | x8 | x8 | x8 | x8 | x8 | x8 | x8 | %19
 x8 | x8 | x8 | x8 | x8 | x8 | x8 | x8 | x8 | x8 | x8 | x8 | x8 | x8 | x8 |[K:treble] x8 | x8 | %36
 x4[K:bass] x4 | x8 | x8 | x8 | x8 | x8 | x8 | x8 | x8 | x8 | x8 | x8 | x8 | x8 | x8 | x8 | x8 | %53
 x8 | x8 | x8 | x8 | x8 | x8 | x5[K:treble] x3 | x8 | x8 | x8 | x8 |[K:bass] x8 | x8 | x8 | x8 | %68
 x8 | x8 | x8 | x8 | x8 | x8 | z4 F,,4 | !fermata!B,,8 |] %76

